local/share/icons/dracula-icons-main/scalable/apps/k9-copy.svg

<?xml version="1.0" encoding="UTF-8"?>
<svg xmlns="http://www.w3.org/2000/svg" xmlns:xlink="http://www.w3.org/1999/xlink" width="64" height="64" viewBox="0 0 64 64">
<path fill-rule="nonzero" fill="rgb(25.490196%, 25.490196%, 25.490196%)" fill-opacity="1" d="M 32 5 C 46.910156 5 59 17.089844 59 32 C 59 46.910156 46.910156 59 32 59 C 17.089844 59 5 46.910156 5 32 C 5 17.089844 17.089844 5 32 5 Z M 32 5 "/>
<path fill-rule="nonzero" fill="rgb(100%, 30.196078%, 35.686275%)" fill-opacity="1" d="M 24.679688 20.832031 C 19.375 20.832031 15.0625 25.050781 15.0625 30.226562 C 15.0625 35.207031 19.035156 39.230469 24.058594 39.535156 C 24.058594 33.90625 28.5625 29.3125 34.160156 28.816406 C 33.46875 24.300781 29.492188 20.832031 24.675781 20.832031 M 24.675781 27.273438 C 26.332031 27.273438 27.675781 28.613281 27.675781 30.230469 C 27.675781 31.84375 26.332031 33.140625 24.675781 33.140625 C 23.023438 33.140625 21.675781 31.84375 21.675781 30.230469 C 21.675781 28.613281 23.023438 27.273438 24.675781 27.273438 M 24.675781 27.890625 C 23.347656 27.890625 22.25 28.933594 22.25 30.230469 C 22.25 31.53125 23.347656 32.566406 24.675781 32.566406 C 26.003906 32.566406 27.058594 31.53125 27.058594 30.230469 C 27.058594 28.933594 26.007812 27.890625 24.675781 27.890625 M 24.675781 28.773438 C 25.503906 28.773438 26.175781 29.417969 26.175781 30.230469 C 26.175781 31.039062 25.511719 31.683594 24.675781 31.683594 C 23.851562 31.683594 23.175781 31.039062 23.175781 30.230469 C 23.175781 29.417969 23.851562 28.773438 24.675781 28.773438 "/>
<path fill-rule="nonzero" fill="rgb(29.803922%, 63.921569%, 89.803922%)" fill-opacity="1" d="M 35.132812 30.179688 C 29.828125 30.179688 25.527344 34.375 25.527344 39.558594 C 25.527344 44.742188 29.828125 48.9375 35.132812 48.9375 C 40.445312 48.9375 44.746094 44.742188 44.746094 39.558594 C 44.746094 34.375 40.445312 30.179688 35.132812 30.179688 M 35.132812 36.628906 C 36.792969 36.628906 38.140625 37.941406 38.140625 39.558594 C 38.140625 41.171875 36.792969 42.488281 35.132812 42.488281 C 33.480469 42.488281 32.132812 41.171875 32.132812 39.558594 C 32.132812 37.941406 33.480469 36.628906 35.132812 36.628906 M 35.132812 37.214844 C 33.804688 37.214844 32.734375 38.253906 32.734375 39.558594 C 32.734375 40.859375 33.804688 41.90625 35.132812 41.90625 C 36.46875 41.90625 37.539062 40.859375 37.539062 39.558594 C 37.539062 38.253906 36.46875 37.214844 35.132812 37.214844 M 35.132812 38.089844 C 35.96875 38.089844 36.640625 38.746094 36.640625 39.558594 C 36.640625 40.367188 35.964844 41.023438 35.132812 41.023438 C 34.308594 41.023438 33.632812 40.367188 33.632812 39.558594 C 33.632812 38.746094 34.308594 38.089844 35.132812 38.089844 "/>
<path fill-rule="evenodd" fill="rgb(94.901961%, 94.901961%, 94.901961%)" fill-opacity="1" d="M 29.144531 15.058594 C 21.003906 15.066406 14.246094 21.339844 13.648438 29.445312 C 14.234375 23.679688 19.097656 19.292969 24.902344 19.292969 C 31.148438 19.292969 36.238281 24.347656 36.238281 30.585938 L 36.238281 33.410156 L 30.5625 33.410156 L 40.457031 43.289062 L 50.351562 33.410156 L 44.707031 33.410156 L 44.707031 30.585938 C 44.707031 22.011719 37.734375 15.058594 29.152344 15.058594 "/>
</svg>

<svg width="64" height="64" version="1.1" viewBox="0 0 64 64" xmlns="http://www.w3.org/2000/svg">
 <path d="m32 5c14.912 0 27 12.088 27 27s-12.088 27-27 27-27-12.088-27-27 12.088-27 27-27z" fill="#414141" stroke-width="1.1739"/>
 <g transform="matrix(1.1739 0 0 1.1739 3.8261 3.8238)">
  <g transform="translate(1,1)">
   <g opacity=".1"></g>
  </g>
 </g>
 <g>
  <path d="m24.678 20.832c-5.3049 0-9.6174 4.2179-9.6174 9.3957 0 4.9788 3.9751 9.0047 8.9991 9.3082 0-5.6295 4.5045-10.223 10.102-10.72-0.69452-4.5158-4.671-7.9841-9.4847-7.9841m0 6.4412c1.6544 0 2.9997 1.3396 2.9997 2.9559 0 1.6163-1.3453 2.9122-2.9997 2.9122-1.6544 0-2.9997-1.2959-2.9997-2.9122 0-1.6163 1.3453-2.9559 2.9997-2.9559m0 0.61829c-1.3283 0-2.4266 1.0418-2.4266 2.3376 0 1.3015 1.0968 2.3376 2.4266 2.3376 1.3283 0 2.3828-1.0361 2.3828-2.3376 0-1.2959-1.0531-2.3376-2.3828-2.3376m0 0.88226c0.82721 0 1.5006 0.64511 1.5006 1.4554 0 0.81027-0.6677 1.4554-1.5006 1.4554-0.82721 0-1.5006-0.64511-1.5006-1.4554 0-0.81027 0.67334-1.4554 1.5006-1.4554" fill="#ff4d5b"/>
  <path d="m35.134 30.178c-5.3049 0-9.6061 4.1967-9.6061 9.3802 0 5.1835 4.3012 9.3802 9.6061 9.3802 5.3105 0 9.6117-4.1967 9.6117-9.3802 0-5.1835-4.3012-9.3802-9.6117-9.3802m0 6.4511c1.6601 0 3.0053 1.3128 3.0053 2.9277 0 1.6163-1.3453 2.9333-3.0053 2.9333-1.6544 0-2.9997-1.3185-2.9997-2.9333 0-1.6163 1.3453-2.9277 2.9997-2.9277m0 0.58441c-1.3283 0-2.3983 1.0418-2.3983 2.3433 0 1.3015 1.07 2.3489 2.3983 2.3489 1.334 0 2.404-1.0474 2.404-2.3489 0-1.3015-1.07-2.3433-2.404-2.3433m0 0.87662c0.83286 0 1.5048 0.6564 1.5048 1.4667 0 0.81027-0.67334 1.4667-1.5048 1.4667-0.82721 0-1.5006-0.6564-1.5006-1.4667 0-0.81027 0.67334-1.4667 1.5006-1.4667" fill="#4ca3e5"/>
  <path d="m29.143 15.058c-8.1408 0.0084-14.897 6.2831-15.494 14.389 0.58582-5.7665 5.4474-10.154 11.253-10.154 6.2464 0 11.335 5.0564 11.335 11.293v2.8232h-5.6747l9.8954 9.8813 9.8954-9.8813h-5.6465v-2.8232c0-8.5756-6.972-15.528-15.556-15.528" fill="#f2f2f2" fill-rule="evenodd"/>
 </g>
</svg>
